yogo/img/ellipse.svg

<svg width="1545" height="772" viewBox="0 0 1545 772" fill="none" xmlns="http://www.w3.org/2000/svg">
<path d="M856.48 54.1533C1068.26 107.783 1250.53 193.57 1374.02 288.887C1435.77 336.546 1482.79 386.568 1511.47 436.118C1540.15 485.664 1550.47 534.698 1538.89 580.435C1527.3 626.172 1494.89 664.385 1446.09 694.31C1397.28 724.238 1332.12 745.85 1255.13 758.377C1101.16 783.43 900.027 772.128 688.246 718.497C476.464 664.867 294.194 579.08 170.703 483.763C108.957 436.104 61.9318 386.082 33.2512 336.532C4.57299 286.986 -5.7431 237.952 5.83881 192.216C17.4209 146.479 49.8311 108.264 98.6343 78.3392C147.441 48.4118 212.606 26.8001 289.593 14.273C443.566 -10.7809 644.699 0.523185 856.48 54.1533Z" stroke="url(#paint0_linear_20_6478)" stroke-width="1.33333"/>
<defs>
<linearGradient id="paint0_linear_20_6478" x1="58.928" y1="165.728" x2="1387.01" y2="716.7" gradientUnits="userSpaceOnUse">
<stop stop-color="#484848"/>
<stop offset="0.491388" stop-color="#484848" stop-opacity="0.36"/>
<stop offset="1" stop-color="#484848"/>
</linearGradient>
</defs>
</svg>

<svg xmlns="http://www.w3.org/2000/svg" width="1545" height="772" fill="none"><path stroke="url(#a)" stroke-width="1.333" d="M856.48 54.153c211.78 53.63 394.05 139.417 517.54 234.734 61.75 47.659 108.77 97.681 137.45 147.231 28.68 49.546 39 98.58 27.42 144.317-11.59 45.737-44 83.95-92.8 113.875-48.81 29.928-113.97 51.54-190.96 64.067-153.97 25.053-355.103 13.751-566.884-39.88-211.782-53.63-394.052-139.417-517.543-234.734-61.746-47.659-108.771-97.681-137.452-147.231C4.573 286.986-5.743 237.952 5.84 192.216S49.83 108.264 98.634 78.339C147.441 48.412 212.606 26.8 289.593 14.273 443.566-10.781 644.699.523 856.48 54.153Z"/><defs><linearGradient id="a" x1="58.928" x2="1387.01" y1="165.728" y2="716.7" gradientUnits="userSpaceOnUse"><stop stop-color="#484848"/><stop offset=".491" stop-color="#484848" stop-opacity=".36"/><stop offset="1" stop-color="#484848"/></linearGradient></defs></svg>
